SERVER/dist/web/static/SVG/product.svg

<svg width="24" height="24" viewBox="0 0 24 24" fill="none" xmlns="http://www.w3.org/2000/svg">
<path d="M20.25 7.5L19.625 18.132C19.5913 18.705 19.3399 19.2436 18.9222 19.6373C18.5045 20.031 17.952 20.2502 17.378 20.25H6.622C6.04796 20.2502 5.49555 20.031 5.07783 19.6373C4.66011 19.2436 4.40868 18.705 4.375 18.132L3.75 7.5M10 11.25H14M3.375 7.5H20.625C21.246 7.5 21.75 6.996 21.75 6.375V4.875C21.75 4.254 21.246 3.75 20.625 3.75H3.375C2.754 3.75 2.25 4.254 2.25 4.875V6.375C2.25 6.996 2.754 7.5 3.375 7.5Z" stroke="white" stroke-width="1.5" stroke-linecap="round" stroke-linejoin="round"/>
</svg>

<svg xmlns="http://www.w3.org/2000/svg" fill="none" viewBox="0 0 24 24" stroke-width="1.5"
  stroke="currentColor" class="w-6 h-6">
  <path stroke-linecap="round" stroke-linejoin="round"
    d="M20.25 7.5l-.625 10.632a2.25 2.25 0 01-2.247 2.118H6.622a2.25 2.25 0 01-2.247-2.118L3.75 7.5M10 11.25h4M3.375 7.5h17.25c.621 0 1.125-.504 1.125-1.125v-1.5c0-.621-.504-1.125-1.125-1.125H3.375c-.621 0-1.125.504-1.125 1.125v1.5c0 .621.504 1.125 1.125 1.125z" />
</svg>
